!!!OTL: Eifersucht (2-78) S. 232
!!!id: P0951
**kern
*clefG2
*k[]
*G:
{16g
16g
=1
8b
8b
16a
16a
=2
4b}
=3
{16g
16a
=4
8b
8b
8a
=5
4b}
8r
=6
{8b
8b
16b
16a
=7
8b
8dd
8b}
=8
{8a
8a
16a
16g
=9
8a
8dd
8a}
=10
{8a
8g
8b
=11
4g}
==
*-
!!!minrhy: 16
!!!meters: 3/8 ]  ZZ[5
!!!cut: Eifersucht (2-78) S. 232
!!!reg: Lothringen
!!!trd: PINCK, Louis: Verklingende Weisen, Bd 2, Metz 1928
!!!rhy1: XX  X_X_XX  X__
!!!rhy2: XX  X_X_X_  X__0_
!!!key: P0951  16  G 3/8 ]  ZZ[5
!!!mod: VIERTONSKALA ]  AMBITUS[5
!!!kad: 33321
!!!akz: 33_33_33_22_21_
!!!fot: 'a__av_b__bs'c__
!!!for: 'a__b__aw_aw_bv_
!!!fok: '/__/__^__^__\__
!! PHRAS[GEMISCHTTAKTIG]
!!!fkt: Eifersucht
!! LOTH VKL
!! PR[3] 2K[17] 2G[25] 3K[0] 3G[0] 4A[6] 4Ü[0] 5A[3] 6K[0] 6G[0]
!! 7K[0] 7G[0] 8A[0] MEHR[0] SI[50] ABS[36] SR[42] SP[8]
!! ST[8] 2k[14] 2g[25] 3k[6] 3g[0] 4d[0] 4ü[0] 5d[3] 6k[0] 6g[0]
!! 7k[0] 7g[0] 8d[0] mehr[0] si[47] dm[+3] sr[39] sp[8]
!! 1F[10] 2F[68] 3F[13] 4F[0] LF[0] 2P[5] 3P[5] 4P[0] TRI[0] DF[5] AB[40]
!! TF[0] U3K[0] U3[0] U4[0] U4Ü[0] U5[3] U6K[0] U6[0] U7K[5] U7[0]
!! N1[16] N2K[0] N2[22] N3K[24] N3[0] N4[19] N4Ü[0] N5[11] N6K[0] N6[0]
!!!n7k: 0] N7[0] O1[0] O2K[0] O2[0] O3K[0] O3[0] HÖ[0
